public/icons/email.svg

<svg width="512" height="512" xmlns="http://www.w3.org/2000/svg"><path d="M251.402 447.44c-36.367 0-67.333-7.69-92.9-23.07-25.567-15.38-44.777-37.323-57.63-65.83-12.853-28.507-18.527-62.517-17.02-102.03 1.64-39.1 10.117-73.007 25.43-101.72 15.313-28.707 36.367-50.923 63.16-66.65 26.8-15.72 58.177-23.58 94.13-23.58 35.14 0 64.98 7.383 89.52 22.15 24.54 14.767 43.03 35.717 55.47 62.85 12.447 27.14 17.987 59.303 16.62 96.49-.82 20.787-4.99 39.723-12.51 56.81-7.52 17.093-18.287 30.697-32.3 40.81-14.013 10.12-31.14 15.18-51.38 15.18-13.393 0-24.297-3.043-32.71-9.13-8.407-6.087-14.25-14.667-17.53-25.74-11.76 22.7-29.19 34.05-52.29 34.05-20.1 0-35.413-8.203-45.94-24.61-10.527-16.407-14.423-38.557-11.69-66.45 2.32-22.287 7.207-41.803 14.66-58.55s17.777-29.837 30.97-39.27c13.193-9.433 29.563-14.15 49.11-14.15 12.307 0 23.383 1.743 33.23 5.23 9.84 3.487 20.913 8.99 33.22 16.51l.41.82-10.46 116.89c-.407 8.067-.1 14.46.92 19.18 1.027 4.713 2.873 8.063 5.54 10.05 2.667 1.98 6.05 2.97 10.15 2.97 13.4 0 24.613-7.487 33.64-22.46 9.02-14.967 14.077-34.347 15.17-58.14 2.187-45.933-7.11-81.957-27.89-108.07s-52.363-39.17-94.75-39.17c-27.613 0-51.503 6.39-71.67 19.17-20.167 12.787-35.993 31.007-47.48 54.66-11.48 23.647-17.903 51.603-19.27 83.87-1.64 31.72 2.257 59.063 11.69 82.03 9.433 22.973 23.787 40.68 43.06 53.12 19.28 12.44 42.66 18.66 70.14 18.66 11.487 0 23.45-1.333 35.89-4 12.44-2.667 23.17-5.98 32.19-9.94l7.59 32.81c-9.02 5.74-20.607 10.217-34.76 13.43-14.147 3.213-28.057 4.82-41.73 4.82zm-6.36-127.35c6.153 0 12.067-1.847 17.74-5.54 5.673-3.693 10.833-10.46 15.48-20.3.14-.687.277-1.507.41-2.46.14-.96.277-2.603.41-4.93l8.21-90.23c-2.733-1.093-5.64-1.947-8.72-2.56-3.073-.62-6.32-.93-9.74-.93-14.22 0-25.123 6.29-32.71 18.87-7.587 12.58-12.543 31.653-14.87 57.22-1.5 16.68-.27 29.327 3.69 37.94 3.967 8.613 10.667 12.92 20.1 12.92z" style="white-space:pre;fill:#0000cf"/><path d="M322.972 294.45c-.407 8.067-15.277 61.357-23.69 55.27-8.407-6.087-14.25-14.667-17.53-25.74-11.76 22.7-29.19 34.05-52.29 34.05-20.1 0-35.413-8.203-45.94-24.61-10.527-16.407-14.423-38.557-11.69-66.45 2.32-22.287 7.207-41.803 14.66-58.55s17.777-29.837 30.97-39.27c13.193-9.433 29.563-14.15 49.11-14.15 12.307 0 23.383 1.743 33.23 5.23 9.84 3.487 20.913 8.99 33.22 16.51l.41.82-10.46 116.89zm-77.93 25.64c6.153 0 12.067-1.847 17.74-5.54 5.673-3.693 10.833-10.46 15.48-20.3.14-.687.277-1.507.41-2.46.14-.96.277-2.603.41-4.93l8.21-90.23c-2.733-1.093-5.64-1.947-8.72-2.56-3.073-.62-6.32-.93-9.74-.93-14.22 0-25.123 6.29-32.71 18.87-7.587 12.58-12.543 31.653-14.87 57.22-1.5 16.68-.27 29.327 3.69 37.94 3.967 8.613 10.667 12.92 20.1 12.92z" style="white-space:pre;fill:#cf0000"/></svg>

<?xml version="1.0" encoding="utf-8"?>
<svg viewBox="0 0 512 512" width="512px" height="512px" xmlns="http://www.w3.org/2000/svg">
  <path d="M 251.402 447.44 C 215.035 447.44 184.069 439.75 158.502 424.37 C 132.935 408.99 113.725 387.047 100.872 358.54 C 88.019 330.033 82.345 296.023 83.852 256.51 C 85.492 217.41 93.969 183.503 109.282 154.79 C 124.595 126.083 145.649 103.867 172.442 88.14 C 199.242 72.42 230.619 64.56 266.572 64.56 C 301.712 64.56 331.552 71.943 356.092 86.71 C 380.632 101.477 399.122 122.427 411.562 149.56 C 424.009 176.7 429.549 208.863 428.182 246.05 C 427.362 266.837 423.192 285.773 415.672 302.86 C 408.152 319.953 397.385 333.557 383.372 343.67 C 369.359 353.79 352.232 358.85 331.992 358.85 C 318.599 358.85 307.695 355.807 299.282 349.72 C 290.875 343.633 285.032 335.053 281.752 323.98 C 269.992 346.68 252.562 358.03 229.462 358.03 C 209.362 358.03 194.049 349.827 183.522 333.42 C 172.995 317.013 169.099 294.863 171.832 266.97 C 174.152 244.683 179.039 225.167 186.492 208.42 C 193.945 191.673 204.269 178.583 217.462 169.15 C 230.655 159.717 247.025 155 266.572 155 C 278.879 155 289.955 156.743 299.802 160.23 C 309.642 163.717 320.715 169.22 333.022 176.74 L 333.432 177.56 L 322.972 294.45 C 322.565 302.517 322.872 308.91 323.892 313.63 C 324.919 318.343 326.765 321.693 329.432 323.68 C 332.099 325.66 335.482 326.65 339.582 326.65 C 352.982 326.65 364.195 319.163 373.222 304.19 C 382.242 289.223 387.299 269.843 388.392 246.05 C 390.579 200.117 381.282 164.093 360.502 137.98 C 339.722 111.867 308.139 98.81 265.752 98.81 C 238.139 98.81 214.249 105.2 194.082 117.98 C 173.915 130.767 158.089 148.987 146.602 172.64 C 135.122 196.287 128.699 224.243 127.332 256.51 C 125.692 288.23 129.589 315.573 139.022 338.54 C 148.455 361.513 162.809 379.22 182.082 391.66 C 201.362 404.1 224.742 410.32 252.222 410.32 C 263.709 410.32 275.672 408.987 288.112 406.32 C 300.552 403.653 311.282 400.34 320.302 396.38 L 327.892 429.19 C 318.872 434.93 307.285 439.407 293.132 442.62 C 278.985 445.833 265.075 447.44 251.402 447.44 Z M 245.042 320.09 C 251.195 320.09 257.109 318.243 262.782 314.55 C 268.455 310.857 273.615 304.09 278.262 294.25 C 278.402 293.563 278.539 292.743 278.672 291.79 C 278.812 290.83 278.949 289.187 279.082 286.86 L 287.292 196.63 C 284.559 195.537 281.652 194.683 278.572 194.07 C 275.499 193.45 272.252 193.14 268.832 193.14 C 254.612 193.14 243.709 199.43 236.122 212.01 C 228.535 224.59 223.579 243.663 221.252 269.23 C 219.752 285.91 220.982 298.557 224.942 307.17 C 228.909 315.783 235.609 320.09 245.042 320.09 Z" style="white-space: pre; fill: rgb(0, 0, 207);">
    <title>outside</title>
  </path>
  <path d="M 322.972 294.45 C 322.565 302.517 307.695 355.807 299.282 349.72 C 290.875 343.633 285.032 335.053 281.752 323.98 C 269.992 346.68 252.562 358.03 229.462 358.03 C 209.362 358.03 194.049 349.827 183.522 333.42 C 172.995 317.013 169.099 294.863 171.832 266.97 C 174.152 244.683 179.039 225.167 186.492 208.42 C 193.945 191.673 204.269 178.583 217.462 169.15 C 230.655 159.717 247.025 155 266.572 155 C 278.879 155 289.955 156.743 299.802 160.23 C 309.642 163.717 320.715 169.22 333.022 176.74 L 333.432 177.56 L 322.972 294.45 Z M 245.042 320.09 C 251.195 320.09 257.109 318.243 262.782 314.55 C 268.455 310.857 273.615 304.09 278.262 294.25 C 278.402 293.563 278.539 292.743 278.672 291.79 C 278.812 290.83 278.949 289.187 279.082 286.86 L 287.292 196.63 C 284.559 195.537 281.652 194.683 278.572 194.07 C 275.499 193.45 272.252 193.14 268.832 193.14 C 254.612 193.14 243.709 199.43 236.122 212.01 C 228.535 224.59 223.579 243.663 221.252 269.23 C 219.752 285.91 220.982 298.557 224.942 307.17 C 228.909 315.783 235.609 320.09 245.042 320.09 Z" style="white-space: pre; fill: rgb(207, 0, 0);">
    <title>inside</title>
  </path>
</svg>
